X:20
T:Carraroe
T:aka - Highlander over the Border, Portroe
R:jig
O:Ireland
D:An Historic Recording of Irish Music
H:evolved from the Scottish air, Blue Bonnets Over the Border
Z:Paul Stewart Cranford (P.S.C.), <http://www.cranfordpub.com>                         
L:1/8
Q:300
M:6/8
K:D
F|DED F2 A|dfe d2 A|BAF Adf|afd e2 f|
DED F2 A|dfe d2 A|BcB AFA|dAF E2:|
|:A|dfa afa|bfe edB|dfa afa|bfe e2 f|
dfa afa|bfe edB|dcB AFA|dAF E2:|
